static/images/homeWhyDo1.svg

<svg height="118" viewBox="0 0 118 118" width="118" xmlns="http://www.w3.org/2000/svg" xmlns:xlink="http://www.w3.org/1999/xlink"><defs><circle id="a" cx="43" cy="43" r="43"/><filter id="b" height="160.5%" width="160.5%" x="-30.2%" y="-25.6%"><feOffset dx="0" dy="4" in="SourceAlpha" result="shadowOffsetOuter1"/><feGaussianBlur in="shadowOffsetOuter1" result="shadowBlurOuter1" stdDeviation="8"/><feColorMatrix in="shadowBlurOuter1" type="matrix" values="0 0 0 0 0.254901961   0 0 0 0 0.458823529   0 0 0 0 0.647058824  0 0 0 0.24 0"/></filter><linearGradient id="c" x1="0%" x2="149.460671%" y1="0%" y2="71.875%"><stop offset="0" stop-color="#00eaf8"/><stop offset="1" stop-color="#6d42ef"/></linearGradient></defs><g fill="none" transform="translate(16 12)"><use fill="#000" filter="url(#b)" xlink:href="#a"/><use fill="#fff" fill-rule="evenodd" xlink:href="#a"/><path d="m53.2607376 27.9822415c.020421.0000634.040848.0001882.0612807.0003746.1860013.0016964.361472.0473373.5169176.1271173 5.3949736-.0107329 9.9187689 3.9994071 10.3909428 9.2479471.4773476 5.3060495-3.3492221 10.065705-8.8079549 10.8989134l-1.6876666.1856848c-.6545375.0720153-1.2451429-.3859019-1.3191542-1.0227865s.3965981-1.2115615 1.0511355-1.2835767l1.6366025-.1789766c4.1687983-.6371531 7.1187197-4.3063949 6.7507301-8.3968547-.3679896-4.0904597-3.9282172-7.2051946-8.1698344-7.127691-.2765855 0-.5721412.0142497-.8819571.0416552-.1760181.0155701-.3493664-.0072292-.5094045-.0629201-1.7460229.2094019-3.3856291 1.0000011-4.6533745 2.2630912-1.5094901 1.5039472-2.3681156 3.5545549-2.3869702 5.700669-.0057567.6552518-.5341076 1.1817047-1.1801048 1.1758655-.6459971-.0058391-1.1650146-.5417593-1.1592579-1.1970111.0243839-2.775473 1.1348057-5.4274319 3.0869616-7.3724193 1.2875682-1.2828402 2.8717374-2.1888155 4.5862356-2.6498331-2.4370394-2.9803917-6.2984693-4.5998717-10.2775701-4.1964169-4.6226872.4687102-8.5114798 3.5771471-9.8814769 7.898582-.1596993.5037455-.6482724.8394725-1.1895784.8174284-2.5111295-.102263-4.875048 1.1530607-6.1452138 3.263324-1.2701657 2.1102633-1.238947 4.7305055.0811559 6.8115494 1.3201028 2.0810439 3.713295 3.2827052 6.3460503 3.1222832l1.3537114.0522239c.6581915.0253919 1.1706063.5651554 1.1445106 1.2055954-.0260957.6404401-.58082 1.1390352-1.2390114 1.1136433l-1.2934666-.0498998c-3.3652849.1901592-6.5692693-1.4306967-8.3416542-4.2247297-1.7837035-2.8118758-1.8258858-6.3523084-.1096566-9.2036651 1.5629298-2.5966638 4.3514983-4.2352985 7.3997717-4.4029593 1.8621859-4.7851769 6.3478828-8.1766049 11.6276294-8.7119367 5.2648438-.5338207 10.3588252 1.8697361 13.1996714 6.1557289zm-11.1795065 18.7381888c.1223273-.0328339.2520662-.0504838.3864427-.0504838.7372115 0 1.3348396.5312249 1.3348396 1.1865241v8.3056684c0 .6552992-.5976281 1.1865241-1.3348396 1.1865241s-1.3348396-.5312249-1.3348396-1.1865241v-6.8225133h-3.5595722v6.8225133c0 .6552992-.5577861 1.1865241-1.2458502 1.1865241h-3.7375508c-.6880641 0-1.2458503-.5312249-1.2458503-1.1865241 0-.6552991.5577862-1.186524 1.2458503-1.186524h2.4917005v-6.2555151c-.1126988-.206758-.1779786-.4521419-.1779786-.7153138 0-.7372115.5122526-1.3348396 1.1441482-1.3348396h5.720741c.1084377 0 .2133521.0175996.312759.0504838zm7.772555 1.1360403v7.1191444h2.4917005c.6880641 0 1.2458503.5312249 1.2458503 1.186524 0 .6552992-.5577862 1.1865241-1.2458503 1.1865241h-3.7375508c-.6880641 0-1.2458502-.5312249-1.2458502-1.1865241v-8.3056684c0-.6552992.5577861-1.1865241 1.2458502-1.1865241s1.2458503.5312249 1.2458503 1.1865241zm-7.1879079 13.4411366c-.8556875.4940314-1.9441256.2107675-2.4310946-.6326876-.4869691-.8434551-.1880637-1.9277021.6676238-2.4217335s1.9441256-.2107675 2.4310946.6326876c.4869691.8434551.1880637 1.9277021-.6676238 2.4217335zm-13.3483957-3.5595722c-.8556875.4940314-1.9441256.2107675-2.4310947-.6326876-.486969-.8434551-.1880636-1.9277021.6676238-2.4217335.8556875-.4940314 1.9441257-.2107675 2.4310947.6326876s.1880637 1.9277021-.6676238 2.4217335zm28.2227985-.636114c-.4940314.8556875-1.5782784 1.1545928-2.4217335.6676238s-1.126719-1.5754072-.6326876-2.4310946c.4940314-.8556875 1.5782784-1.1545929 2.4217335-.6676239.8434551.4869691 1.126719 1.5754072.6326876 2.4310947z" fill="url(#c)"/></g></svg>

<?xml version="1.0" encoding="UTF-8"?>
<svg width="118px" height="118px" viewBox="0 0 118 118" version="1.1" xmlns="http://www.w3.org/2000/svg" xmlns:xlink="http://www.w3.org/1999/xlink">
    <!-- Generator: sketchtool 46.2 (44496) - http://www.bohemiancoding.com/sketch -->
    <title>F2AA7AEA-0D5F-4E4D-8192-98C6E720F468</title>
    <desc>Created with sketchtool.</desc>
    <defs>
        <circle id="path-1" cx="43" cy="43" r="43"></circle>
        <filter x="-30.2%" y="-25.6%" width="160.5%" height="160.5%" filterUnits="objectBoundingBox" id="filter-2">
            <feOffset dx="0" dy="4" in="SourceAlpha" result="shadowOffsetOuter1"></feOffset>
            <feGaussianBlur stdDeviation="8" in="shadowOffsetOuter1" result="shadowBlurOuter1"></feGaussianBlur>
            <feColorMatrix values="0 0 0 0 0.254901961   0 0 0 0 0.458823529   0 0 0 0 0.647058824  0 0 0 0.24 0" type="matrix" in="shadowBlurOuter1"></feColorMatrix>
        </filter>
        <linearGradient x1="0%" y1="0%" x2="149.460671%" y2="71.875%" id="linearGradient-3">
            <stop stop-color="#00EAF8" offset="0%"></stop>
            <stop stop-color="#6D42EF" offset="100%"></stop>
        </linearGradient>
    </defs>
    <g id="Page-1" stroke="none" stroke-width="1" fill="none" fill-rule="evenodd">
        <g id="Home-Page-10/04/2017-screen-Install-Rakam" transform="translate(-151.000000, -2902.000000)" fill-rule="nonzero">
            <g id="Why" transform="translate(75.000000, 2814.000000)">
                <g id="Group-5" transform="translate(0.000000, 100.000000)">
                    <g id="1">
                        <g id="colored_big_data-94" transform="translate(92.000000, 0.000000)">
                            <g id="Oval">
                                <use fill="black" fill-opacity="1" filter="url(#filter-2)" xlink:href="#path-1"></use>
                                <use fill="#FFFFFF" fill-rule="evenodd" xlink:href="#path-1"></use>
                            </g>
                            <path d="M53.2607376,27.9822415 C53.2811586,27.9823049 53.3015856,27.9824297 53.3220183,27.9826161 C53.5080196,27.9843125 53.6834903,28.0299534 53.8389359,28.1097334 C59.2339095,28.0990005 63.7577048,32.1091405 64.2298787,37.3576805 C64.7072263,42.66373 60.8806566,47.4233855 55.4219238,48.2565939 L53.7342572,48.4422787 C53.0797197,48.514294 52.4891143,48.0563768 52.415103,47.4194922 C52.3410917,46.7826076 52.8117011,46.2079307 53.4662385,46.1359155 L55.102841,45.9569389 C59.2716393,45.3197858 62.2215607,41.650544 61.8535711,37.5600842 C61.4855815,33.4696245 57.9253539,30.3548896 53.6837367,30.4323932 C53.4071512,30.4323932 53.1115955,30.4466429 52.8017796,30.4740484 C52.6257615,30.4896185 52.4524132,30.4668192 52.2923751,30.4111283 C50.5463522,30.6205302 48.906746,31.4111294 47.6390006,32.6742195 C46.1295105,34.1781667 45.270885,36.2287744 45.2520304,38.3748885 C45.2462737,39.0301403 44.7179228,39.5565932 44.0719256,39.550754 C43.4259285,39.5449149 42.906911,39.0089947 42.9126677,38.3537429 C42.9370516,35.5782699 44.0474734,32.926311 45.9996293,30.9813236 C47.2871975,29.6984834 48.8713667,28.7925081 50.5858649,28.3314905 C48.1488255,25.3510988 44.2873956,23.7316188 40.3082948,24.1350736 C35.6856076,24.6037838 31.796815,27.7122207 30.4268179,32.0336556 C30.2671186,32.5374011 29.7785455,32.8731281 29.2372395,32.851084 C26.72611,32.748821 24.3621915,34.0041447 23.0920257,36.114408 C21.82186,38.2246713 21.8530787,40.8449135 23.1731816,42.9259574 C24.4932844,45.0070013 26.8864766,46.2086626 29.5192319,46.0482406 L30.8729433,46.1004645 C31.5311348,46.1258564 32.0435496,46.6656199 32.0174539,47.3060599 C31.9913582,47.9465 31.4366339,48.4450951 30.7784425,48.4197032 L29.4849759,48.3698034 C26.119691,48.5599626 22.9157066,46.9391067 21.1433217,44.1450737 C19.3596182,41.3331979 19.3174359,37.7927653 21.0336651,34.9414086 C22.5965949,32.3447448 25.3851634,30.7061101 28.4334368,30.5384493 C30.2956227,25.7532724 34.7813196,22.3618444 40.0610662,21.8265126 C45.32591,21.2926919 50.4198914,23.6962487 53.2607376,27.9822415 Z M42.0812311,46.7204303 C42.2035584,46.6875964 42.3332973,46.6699465 42.4676738,46.6699465 C43.2048853,46.6699465 43.8025134,47.2011714 43.8025134,47.8564706 L43.8025134,56.162139 C43.8025134,56.8174382 43.2048853,57.3486631 42.4676738,57.3486631 C41.7304623,57.3486631 41.1328342,56.8174382 41.1328342,56.162139 L41.1328342,49.3396257 L37.573262,49.3396257 L37.573262,56.162139 C37.573262,56.8174382 37.0154759,57.3486631 36.3274118,57.3486631 L32.589861,57.3486631 C31.9017969,57.3486631 31.3440107,56.8174382 31.3440107,56.162139 C31.3440107,55.5068399 31.9017969,54.975615 32.589861,54.975615 L35.0815615,54.975615 L35.0815615,48.7200999 C34.9688627,48.5133419 34.9035829,48.267958 34.9035829,48.0047861 C34.9035829,47.2675746 35.4158355,46.6699465 36.0477311,46.6699465 L41.7684721,46.6699465 C41.8769098,46.6699465 41.9818242,46.6875461 42.0812311,46.7204303 Z M49.8537861,47.8564706 L49.8537861,54.975615 L52.3454866,54.975615 C53.0335507,54.975615 53.5913369,55.5068399 53.5913369,56.162139 C53.5913369,56.8174382 53.0335507,57.3486631 52.3454866,57.3486631 L48.6079358,57.3486631 C47.9198717,57.3486631 47.3620856,56.8174382 47.3620856,56.162139 L47.3620856,47.8564706 C47.3620856,47.2011714 47.9198717,46.6699465 48.6079358,46.6699465 C49.2959999,46.6699465 49.8537861,47.2011714 49.8537861,47.8564706 Z M42.6658782,61.2976072 C41.8101907,61.7916386 40.7217526,61.5083747 40.2347836,60.6649196 C39.7478145,59.8214645 40.0467199,58.7372175 40.9024074,58.2431861 C41.7580949,57.7491547 42.846533,58.0324186 43.333502,58.8758737 C43.8204711,59.7193288 43.5215657,60.8035758 42.6658782,61.2976072 Z M29.3174825,57.738035 C28.461795,58.2320664 27.3733569,57.9488025 26.8863878,57.1053474 C26.3994188,56.2618923 26.6983242,55.1776453 27.5540116,54.6836139 C28.4096991,54.1895825 29.4981373,54.4728464 29.9851063,55.3163015 C30.4720753,56.1597566 30.17317,57.2440036 29.3174825,57.738035 Z M57.540281,57.101921 C57.0462496,57.9576085 55.9620026,58.2565138 55.1185475,57.7695448 C54.2750924,57.2825758 53.9918285,56.1941376 54.4858599,55.3384502 C54.9798913,54.4827627 56.0641383,54.1838573 56.9075934,54.6708263 C57.7510485,55.1577954 58.0343124,56.2462335 57.540281,57.101921 Z" id="Combined-Shape" fill="url(#linearGradient-3)"></path>
                        </g>
                    </g>
                </g>
            </g>
        </g>
    </g>
</svg>
